src/assets/selectIconsSpells/raggio_2.svg

<svg xmlns="http://www.w3.org/2000/svg" viewBox="0 0 512 512"><path d="M0 0h512v512H0z"/><path fill="#fff" d="M17.607 15.518v72.9L225.837 278.5 114.91 254.926l144.863 114.262c1.57-15.168 14.386-27 29.97-27 16.642 0 30.136 13.49 30.136 30.134 0 16.64-13.49 30.135-30.136 30.135-10.836 0-20.334-5.722-25.644-14.31l-105.08-2.928 156.667 71.807-124.75 22.85 43.122 15.246h121.036c.962-5.602 2.166-11.124 3.597-16.555-13.39-4.216-23.105-16.73-23.105-31.515 0-18.244 14.79-33.037 33.04-33.037 6.266 0 12.127 1.746 17.12 4.777 5.93-8.855 12.5-17.16 19.61-24.81-4.832-4.24-8.404-9.88-10.07-16.294-3.96 3.357-9.082 5.386-14.68 5.386-12.543 0-22.713-10.167-22.713-22.713 0-12.543 10.167-22.713 22.712-22.713 8.763 0 16.365 4.965 20.153 12.235 5.95-7.925 15.426-13.053 26.1-13.053 12.914 0 24.075 7.504 29.363 18.39 12.128-6.168 24.79-10.725 37.685-13.425v-67.293l-7.635-65.463-38.052 105.1-38.988-164.658-28.673 111.69-93.04-160.578 10.25 119.818L99.375 15.518H17.606zm268.09 241.447c8.683 0 16.033 5.703 18.512 13.568 5.346-4.592 12.292-7.373 19.894-7.373 16.875 0 30.56 13.68 30.56 30.56 0 16.875-13.68 30.56-30.56 30.56-16.744 0-30.337-13.47-30.55-30.167-2.403 1.066-5.058 1.67-7.857 1.67-10.718 0-19.408-8.69-19.408-19.41 0-10.718 8.686-19.408 19.407-19.408zm112.25 25.084c10.72 0 19.41 8.688 19.41 19.41 0 10.717-8.69 19.407-19.41 19.407-10.718 0-19.408-8.687-19.408-19.408 0-10.72 8.686-19.41 19.407-19.41z"/></svg>

<?xml version="1.0" encoding="UTF-8" standalone="no"?>
<!DOCTYPE svg PUBLIC "-//W3C//DTD SVG 1.1//EN" "http://www.w3.org/Graphics/SVG/1.1/DTD/svg11.dtd">
<svg width="100%" height="100%" viewBox="0 0 512 512" version="1.1" xmlns="http://www.w3.org/2000/svg" xmlns:xlink="http://www.w3.org/1999/xlink" xml:space="preserve" xmlns:serif="http://www.serif.com/" style="fill-rule:evenodd;clip-rule:evenodd;stroke-linejoin:round;stroke-miterlimit:2;">
    <rect x="0" y="0" width="512" height="512" style="fill-rule:nonzero;"/>
    <path d="M17.607,15.518L17.607,88.418L225.837,278.5L114.91,254.926L259.773,369.188C261.343,354.02 274.159,342.188 289.743,342.188C306.385,342.188 319.879,355.678 319.879,372.322C319.879,388.962 306.389,402.457 289.743,402.457C278.907,402.457 269.409,396.735 264.099,388.147L159.019,385.219L315.686,457.026L190.936,479.876L234.058,495.122L355.094,495.122C356.056,489.52 357.26,483.998 358.691,478.567C345.301,474.351 335.586,461.837 335.586,447.052C335.586,428.808 350.376,414.015 368.626,414.015C374.892,414.015 380.753,415.761 385.746,418.792C391.676,409.937 398.246,401.632 405.356,393.982C400.524,389.742 396.952,384.102 395.286,377.688C391.326,381.045 386.204,383.074 380.606,383.074C368.063,383.074 357.893,372.907 357.893,360.361C357.893,347.818 368.06,337.648 380.605,337.648C389.368,337.648 396.97,342.613 400.758,349.883C406.708,341.958 416.184,336.83 426.858,336.83C439.772,336.83 450.933,344.334 456.221,355.22C468.349,349.052 481.011,344.495 493.906,341.795L493.906,274.502L486.271,209.039L448.219,314.139L409.231,149.481L380.558,261.171L287.518,100.593L297.768,220.411L99.375,15.518L17.606,15.518L17.607,15.518ZM285.697,256.965C294.38,256.965 301.73,262.668 304.209,270.533C309.555,265.941 316.501,263.16 324.103,263.16C340.978,263.16 354.663,276.84 354.663,293.72C354.663,310.595 340.983,324.28 324.103,324.28C307.359,324.28 293.766,310.81 293.553,294.113C291.15,295.179 288.495,295.783 285.696,295.783C274.978,295.783 266.288,287.093 266.288,276.373C266.288,265.655 274.974,256.965 285.695,256.965L285.697,256.965ZM397.947,282.049C408.667,282.049 417.357,290.737 417.357,301.459C417.357,312.176 408.667,320.866 397.947,320.866C387.229,320.866 378.539,312.179 378.539,301.458C378.539,290.738 387.225,282.048 397.946,282.048L397.947,282.049Z" style="fill:url(#_Linear1);fill-rule:nonzero;"/>
    <defs>
        <linearGradient id="_Linear1" x1="0" y1="0" x2="1" y2="0" gradientUnits="userSpaceOnUse" gradientTransform="matrix(476.3,0,0,479.604,17.606,255.32)"><stop offset="0" style="stop-color:rgb(255,255,0);stop-opacity:1"/><stop offset="1" style="stop-color:white;stop-opacity:1"/></linearGradient>
    </defs>
</svg>
